assets/symbols/mulberry/dead.svg

<svg height="850.394" viewBox="0 0 850.394 850.394" width="850.394" xmlns="http://www.w3.org/2000/svg"><path d="m368 368.249h113.386v113.386h-113.386z" fill="none"/><path d="m660.13 697.3v79.89h-467.09v-79.89h440.96zm-26.13-1.3v1.3h-410.58v-467.59c30.34-89.06 110.48-152.68 204.57-152.68 93.859 0 173.84 63.3 204.34 152.01z" fill="#c8c8c8"/><g fill="none"><g stroke="#231f20"><path d="m634 697.3h26.13v79.89h-467.09v-79.89h30.38z" stroke-width="28"/><path d="m428.92 221.59v205.76m102.44-103.03h-205.76" stroke-width="42"/><path d="m223.42 693.85v-464.14c30.34-89.06 110.48-152.68 204.57-152.68 93.859 0 173.84 63.3 204.34 152.01l1.67 466.96" stroke-width="28"/></g><path d="m0 0h850.394v850.394h-850.394z"/></g></svg>

<svg xmlns="http://www.w3.org/2000/svg" width="850.394" height="850.394" viewBox="0 0 850.394 850.394" overflow="visible"><path fill="none" d="M368 368.249h113.386v113.386H368z"/><g fill="#c8c8c8"><path d="M660.13 697.3v79.89H193.04V697.3H634zM634 696v1.3H223.42V229.71C253.76 140.65 333.9 77.03 427.99 77.03c93.859 0 173.84 63.3 204.34 152.01L634 696z"/></g><g fill="none" stroke="#231f20"><path stroke-width="28" d="M634 697.3h26.13v79.89H193.04V697.3h30.38z"/><path stroke-width="42" d="M428.92 221.59v205.76M531.36 324.32H325.6"/><path d="M223.42 693.85V229.71C253.76 140.65 333.9 77.03 427.99 77.03c93.859 0 173.84 63.3 204.34 152.01L634 696" stroke-width="28"/></g><path fill="none" d="M0 0h850.394v850.394H0z"/></svg>
